!!!COA:	Josquin des Prez
!!!CDT:	~1450-1521/08/27
!!!COM:	Comp&egrave;re, Loyset
!!!CDT2:	~1445///-1518///
!!!OPR:	Missa L'homme arm&eacute; quarti toni
!!!ONM:	5
!!!OTL:	Agnus Dei
!!!AGN:	Mass; Agnus Dei
!!!SCT:	NJE 6.1
!!!SCA:	New Josquin Edition 6.1
!!!voices:	4
!!!voices-OPR:	4
**kern	**kern	**kern	**kern
*staff4	*staff3	*staff2	*staff1
*Ivox	*Ivox	*Ivox	*Ivox
*I"Bassus	*I"Tenor	*I"Altus	*I"Superius
*I'B	*I'T	*I'A	*I'S
*>[A,B,C]	*>[A,B,C]	*>[A,B,C]	*>[A,B,C]
*>A	*>A	*>A	*>A
*clefF4	*clefGv2	*clefGv2	*clefG2
*k[]	*k[]	*k[]	*k[]
*M3/1	*M3/1	*M3/1	*M3/1
*met(O)	*met(O)	*met(O)	*met(O)
!!incipit: 4
=1-	=1-	=1-	=1-
!	!LO:TX:Z=8:t=[Canon at the lower second]	!	!
!	!LO:TX:Z=29:t=Canon in e la mi	!	!
0E	0.r	0.r	0.r
1E	.	.	.
=2	=2	=2	=2
1.A	0.r	0.r	0e
2G\	.	.	.
1G	.	.	1e
=3	=3	=3	=3
1.F	0.r	0.r	1.a
2E\	.	.	2g/
1E	.	.	1g
=4	=4	=4	=4
2r	0.r	0.r	2.f/
1A	.	.	.
.	.	.	4e/
.	.	.	0e
2.G\	.	.	.
4F\	.	.	.
4E\	.	.	.
4D\	.	.	.
=5	=5	=5	=5
2C/	0.r	0.r	2r
2D\	.	.	1a
2AA/	.	.	.
2.E\	.	.	2.g/
4F\	.	.	4f/
2G\	.	.	4e/
.	.	.	4d/
=6	=6	=6	=6
2A\	0F	0.r	2c/
2.D\	.	.	2d/
.	.	.	2.A/
4E\	.	.	.
4D\	.	.	.
8C/L	.	.	4B/
8BB/J	.	.	.
2AA/	1F	.	2c/
2D\	.	.	[2d/
=7	=7	=7	=7
0GG	0B-	0.r	4d/]
.	.	.	4c/
.	.	.	2e/
.	.	.	2d/
.	.	.	2.g/
1GG	1B-i	.	.
.	.	.	4f/
.	.	.	4e/
.	.	.	4d/
=8	=8	=8	=8
2.AA/	1A	0E	0.c
4BB/	.	.	.
1C	0G	.	.
1C	.	1E	.
=9	=9	=9	=9
0FF	0.F	0A	1.c
.	.	.	2d/
1FF	.	1A	2c/
.	.	.	[2f/
=10	=10	=10	=10
1C	0.r	1G	2f/]
.	.	.	2e/
0D	.	0F	1f
.	.	.	[1a
=11	=11	=11	=11
1AA	1c	0.E	1a]
0C	1c	.	0g
.	1c	.	.
=12	=12	=12	=12
0D	0.F	0.r	2f/
.	.	.	2.a/
.	.	.	4g/
.	.	.	4f/
.	.	.	4e/
1D	.	.	1f
=13	=13	=13	=13
1.E	0.r	1B	2.e/
.	.	.	4f/
.	.	1B	1g
4D\	.	.	.
4C/	.	.	.
1BB	.	1B	1G
=14	=14	=14	=14
0AA	1c	0.E	1A
.	1c	.	2r
.	.	.	2.A/
1AA	1c	.	.
.	.	.	4B/
.	.	.	2c/
=15	=15	=15	=15
0GG	0B	0.r	2d/
.	.	.	2e/
.	.	.	2d/
.	.	.	1g
1D	1A	.	.
.	.	.	2f#i/
=16	=16	=16	=16
0GG	0.G	1B	0g
.	.	1B	.
1GG	.	1B	1d
=17	=17	=17	=17
1.D	0F	0A	1d
.	.	.	2A/
2AA/	.	.	2.c/
1C	1r	1G	.
.	.	.	4d/
.	.	.	2e/
=18	=18	=18	=18
1.D	0.A	0.F	2d/
.	.	.	2.f/
.	.	.	4e/
2AA/	.	.	2c/
1D	.	.	2.d/
.	.	.	4c/
=19	=19	=19	=19
2r	0.Bl	0.El	0.el
1G	.	.	.
4F\	.	.	.
4E\	.	.	.
1El	.	.	.
!!LO:LB:i:g=z
=20||	=20||	=20||	=20||
*>B	*>B	*>B	*>B
*clefF4	*clefGv2	*clefGv2	*clefG2
*k[]	*k[]	*k[]	*k[]
*	*rscale:1/2	*	*
*M2/1	*M2/0	*M2/1	*M2/1
*met(C|)	*met(C)	*met(C|)	*met(C|)
!!primary-mensuration: met(C|)
!!section: Agnus Dei II
!!!OMD: Agnus Dei II
!	!LO:N:vis=0	!	!
2.E\	[y0e	0r	0r
4F\	.	.	.
2G\	.	.	.
[2A\	.	.	.
=21	=21-	=21	=21
2A\]	0e]yy	1r	0r
2G\	.	.	.
1A	.	2.A/	.
.	.	4B\	.
=22	=22	=22	=22
0r	0e	2c\	0r
.	.	1d	.
.	.	2c\	.
=23	=23-	=23	=23
2.D\	[0d	1.d	0r
4E\	.	.	.
2F\	.	.	.
[2G\	.	4c\	.
.	.	4B\	.
=24	=24	=24	=24
2G\]	0d]	1A	0r
2F\	.	.	.
[1G	.	2.G/	.
.	.	4A/	.
=25	=25-	=25	=25
2G\]	0d	2B\	0r
4F\	.	1c	.
4E\	.	.	.
1D	.	.	.
.	.	2B\	.
=26	=26	=26	=26
!	!LO:N:vis=0	!	!
0C	[y0e	1.c	1r
.	.	.	2.g/
.	.	4B\	.
.	.	4A/	4a/
=27	=27-	=27	=27
0r	0e]yy	2G/	2b\
.	.	1A	1cc
.	.	2G/	2b\
=28	=28	=28	=28
1r	0e	1A	2cc\
.	.	.	2a/
2r	.	2E/	1g
[2E\	.	[2G/	.
=29	=29-	=29	=29
2E\]	[0B	2G/]	0r
2D\	.	2F/	.
1E	.	2G/	.
.	.	4F/	.
.	.	4E/	.
=30	=30	=30	=30
2D\	0B]	2D/	2r
2.E\	.	2G/	1g
.	.	1r	.
4D\	.	.	.
[2G\	.	.	4f/
.	.	.	4e/
=31	=31-	=31	=31
2G\]	0B	1r	2d/
4F\	.	.	2g/
4E\	.	.	.
2.D\	.	2r	1r
.	.	[2d\	.
4E\	.	.	.
=32	=32	=32	=32
2D\	0r	2d\]	1r
2E\	.	4c\	.
.	.	4B\	.
2F\	.	2A/	2r
2G\	.	2G/	[2g/
=33	=33-	=33	=33
0C	[0e	1c	2g/]
.	.	.	2a/
.	.	4c\	2g/
.	.	4B\	.
.	.	4A/	[2cc\
.	.	4G/	.
=34	=34	=34	=34
1AA	0e]	2A/	4cc\]
.	.	.	4b\
.	.	2E/	4a/
.	.	.	4g/
4AA/	.	1A	2a/
4BB/	.	.	.
4C/	.	.	2d/
4D\	.	.	.
=35	=35-	=35	=35
0E	0e	4G/	2r
.	.	4A/	.
.	.	4B\	2.g/
.	.	4c\	.
.	.	2B\	.
.	.	.	4a/
.	.	2G/	4b\
.	.	.	4cc\
=36	=36	=36	=36
!	!LO:N:vis=0	!	!
1G	[y0d	1r	2b\
.	.	.	2g/
[1D	.	2.F/	2a/
.	.	.	[2f/
.	.	4G/	.
=37	=37-	=37	=37
1D]	0d]yy	4A/	4f/]
.	.	4B-i\	4g/
.	.	2A/	4a/
.	.	.	4b-i\
1r	.	2D/	2a/
.	.	[2G/	[2b-\
=38	=38	=38	=38
0r	0d	2G/]	2b-\]
.	.	2F/	1a
.	.	1B-i	.
.	.	.	2g/
=39	=39-	=39	=39
0AA	[0e	0A	1a
.	.	.	2r
.	.	.	[2cc\
=40	=40	=40	=40
1AA	0e]	2r	4cc\]
.	.	.	4b\
.	.	2.c\	4cc\
.	.	.	8b/L
.	.	.	8a/J
[1C	.	.	1g
.	.	4B\	.
.	.	4c\	.
.	.	8B/L	.
.	.	8A/J	.
=41	=41-	=41	=41
1C]	0e	1G	1r
1C	.	1r	2.g/
.	.	.	4f/
=42	=42	=42	=42
!	!LO:N:vis=0	!	!
0GG	[y0B	2.G/	4g/
.	.	.	8f/L
.	.	.	8e/J
.	.	.	2d/
.	.	4F/	.
.	.	4G/	2.g/
.	.	8F/L	.
.	.	8E/J	.
.	.	2D/	.
.	.	.	4a/
=43	=43-	=43	=43
2r	0B]yy	2.G/	2b\
2.G\	.	.	2g/
.	.	4A/	.
.	.	2B\	1r
4F\	.	.	.
4G\	.	2G/	.
8F\L	.	.	.
8E\J	.	.	.
=44	=44	=44	=44
2D\	0r	2A/	0r
2C/	.	1c	.
1D	.	.	.
.	.	2B\	.
=45	=45-	=45	=45
1C	0e	1c	1g
1G	.	1r	1g
=46	=46	=46	=46
!	!LO:N:vis=0	!	!
1F	[y0f	1c	1a
[1D	.	2d\	4a/
.	.	.	4g/
.	.	[2A/	4f/
.	.	.	4e/
=47	=47-	=47	=47
1D]	0f]yy	4A/]	2d/
.	.	4G/	.
.	.	4F/	2.a/
.	.	4E/	.
1r	.	2D/	.
.	.	.	4b\
.	.	[2A/	[2cc\
=48	=48	=48	=48
1r	0e	4A/]	4cc\]
.	.	4B\	4b\
.	.	2.c\	4a/
.	.	.	4g/
1AA	.	.	2a/
.	.	4B\	.
.	.	4A/	[2g/
.	.	4G/	.
=49	=49-	=49	=49
1D	0d	1A	2g/]
.	.	.	2f#i/
1GG	.	[1G	1g
=50	=50	=50	=50
!	!LO:N:vis=0	!	!
1C	[y0c	1G]	2.e/
.	.	.	4f/
4C/	.	2r	2g/
4BB/	.	.	.
4AA/	.	[2C/	[2a/
4GG/	.	.	.
=51	=51-	=51	=51
1AA	0c]yy	2C/]	2a/]
.	.	2D/	4g/
.	.	.	4f/
1AA	.	2E/	2e/
.	.	2F/	2A/
=52	=52	=52	=52
0GGl	0Bl	0Gl	0dl
!!LO:LB:i:g=z
*	*rscale:1	*	*
=53||	=53||	=53||	=53||
*>C	*>C	*>C	*>C
*clefF4	*clefGv2	*clefGv2	*clefG2
*k[]	*k[]	*k[]	*k[]
*M3/1	*M3/1	*M3/1	*M3/1
*met(O)	*met(O)	*met(O)	*met(O)
!!section: Agnus Dei III
!!!OMD: Agnus Dei III
!	!LO:TX:Z=8:t=[Canon at the upper second]	!	!
!	!LO:TX:Z=31:t=Fuga unius temporis in epithono	!	!
0.r	0.r	0.r	0d
.	.	.	1d
=54	=54	=54	=54
0C	0.r	0.r	1.g
.	.	.	2f/
1C	.	.	1e
=55	=55	=55	=55
1.F	0D	0.r	1.d
2E\	.	.	2c/
1D	1D	.	2A/
.	.	.	2B/
=56	=56	=56	=56
0C	0G	0E	1c
.	.	.	2r
.	.	.	2.c/
1C	1G	1E	.
.	.	.	4d/
.	.	.	2e/
=57	=57	=57	=57
1D	1F	0A	2f/
.	.	.	4e/
.	.	.	4d/
0AA	[0E	.	0c
.	.	1A	.
=58	=58	=58	=58
1C	1E]	1G	1c
1r	0D	[0F	2A/
.	.	.	2.d/
[1D	.	.	.
.	.	.	4e/
.	.	.	[2f/
=59	=59	=59	=59
1D]	0A	1F]	4f/]
.	.	.	4e/
.	.	.	2d/
0AA	.	0E	1c
.	1A	.	4c/
.	.	.	4d/
.	.	.	4e/
.	.	.	4f/
=60	=60	=60	=60
0.GG	0D	0B	1g
.	.	.	2d/
.	.	.	2.g/
.	1r	1B	.
.	.	.	4a/
.	.	.	2b\
=61	=61	=61	=61
0AA	1A	0E	2cc\
.	.	.	2.a/
.	1A	.	.
.	.	.	8g/L
.	.	.	8f/J
.	.	.	2e/
1D	1A	1r	2f/
.	.	.	4e/
.	.	.	4f/
=62	=62	=62	=62
1GG	0G	1B	0g
2r	.	1B	.
2.GG/	.	.	.
.	1G	1B	2r
4AA/	.	.	.
4BB/	.	.	[2d/
4C/	.	.	.
=63	=63	=63	=63
1D	1F	0A	4d/]
.	.	.	4e/
.	.	.	4f/
.	.	.	4g/
0AA	[0E	.	2a/
.	.	.	2e/
.	.	1A	2r
.	.	.	[2c/
=64	=64	=64	=64
1C	1E]	1G	4c/]
.	.	.	4d/
.	.	.	2e/
1r	0D	[0F	2A/
.	.	.	2.f/
[1D	.	.	.
.	.	.	4e/
.	.	.	4d/
.	.	.	4c/
=65	=65	=65	=65
1D]	0.r	1F]	1d
2.AA/	.	0E	0e
4BB/	.	.	.
1C	.	.	.
=66	=66	=66	=66
2.D\	0d	0.r	2.f/
4E\	.	.	4g/
2F\	.	.	2a/
2G\	.	.	2b-i\
2D\	1d	.	2a/
2G\	.	.	2b-i\
=67	=67	=67	=67
0C	0c	0e	1g
.	.	.	2r
.	.	.	1g
1C	1c	1e	.
.	.	.	2a/
=68	=68	=68	=68
2G\	1d	0d	2b-i\
2F\	.	.	1a
1G	1B	.	.
.	.	.	2g/
1D	[1A	1d	[1a
=69	=69	=69	=69
1r	1A]	1e	1a]
1F	1r	1c	1a
[1G	1d	[1B	1g
=70	=70	=70	=70
1G]	1d	1B]	2r
.	.	.	2.g/
0C	0c	1r	.
.	.	.	4f/
.	.	.	4e/
.	.	.	4d/
.	.	1e	2c/
.	.	.	[2cc\
=71	=71	=71	=71
1C	1c	1e	4cc\]
.	.	.	4b\
.	.	.	4a/
.	.	.	4g/
2G\	2d\	0d	2b\
2F\	2A/	.	1a
1G	1B	.	.
.	.	.	2g/
=72	=72	=72	=72
2D\	1A	1d	1a
2F\	.	.	.
2E\	2r	2e\	0g
2G\	2d\	2B\	.
2.C/	[1e	1c	.
4D\	.	.	.
=73	=73	=73	=73
1E	1e]	1B	1g
1C	1e	2r	1cc
.	.	2e\	.
1D	[1d	[1f	2r
.	.	.	[2a/
=74	=74	=74	=74
2.D\	1d]	1f]	2a/]
.	.	.	2.b\
4E\	.	.	.
2F\	2c\	1f	.
.	.	.	4a/
2D\	2d\	.	1a
1E	1B	[1e	.
.	.	.	2g#i/
=75	=75	=75	=75
1AA	0A	1e]	1a
2D\	.	2d\	2r
2.C/	.	2e\	1e
.	1r	1c	.
4BB/	.	.	.
2AA/	.	.	2f/
=76	=76	=76	=76
0GG	1D	0B	0g
.	1D	.	.
1GG	[1G	1r	2d/
.	.	.	[2g/
=77	=77	=77	=77
0C	1G]	1E	4g/]
.	.	.	4f/
.	.	.	2.e/
.	1G	1E	.
.	.	.	4d/
.	.	.	4c/
.	.	.	4B/
1D	2F/	[1A	2A/
.	2D/	.	[2d/
=78	=78	=78	=78
1AA	1E	1A]	2d/]
.	.	.	2c/
2r	1D	1A	2d/
2D\	.	.	2.f/
2E\	1r	2G/	.
.	.	.	4e/
2C/	.	2E/	[2e/
=79	=79	=79	=79
1D	1A	1F	2e/]
.	.	.	2d/
1AA	1A	1E	1e
1A	1D	1r	1f
=80	=80	=80	=80
2.E\	1r	1B	1g
4F\	.	.	.
2G\	1r	1B	4g/
.	.	.	4a/
2GG/	.	.	4b\
.	.	.	8a/L
.	.	.	8b/J
1AA	1A	1E	2cc\
.	.	.	[2a/
=81	=81	=81	=81
2D\	1A	1r	4a/]
.	.	.	4g/
2C/	.	.	2e/
1D	1A	1r	2.f/
.	.	.	8e/L
.	.	.	8f/J
[1GG	[1G	1B	1g
=82	=82	=82	=82
1GG]	0G]	1B	2r
.	.	.	1d
1GG	.	1B	.
.	.	.	2.e/
1D	2F/	[1A	.
.	.	.	4d/
.	2D/	.	[2d/
=83	=83	=83	=83
1AA	1E	0A]	2d/]
.	.	.	2c/
2r	1D	.	2d/
2D\	.	.	2f/
2E\	1r	2G/	2e/
2C/	.	2E/	2g/
=84	=84	=84	=84
1D	1A	1F	2f/
.	.	.	4e/
.	.	.	4d/
1AA	1A	1E	1c
1A	1D	1r	1f
=85	=85	=85	=85
2.E\	1r	1B	2.g/
4F\	.	.	8f/L
.	.	.	8e/J
2G\	1r	1B	1d
2GG/	.	.	.
1AA	2A/	1E	4c/
.	.	.	4d/
.	2A/	.	4e/
.	.	.	8d/L
.	.	.	8e/J
=86	=86	=86	=86
2D\	2A/	1r	2f/
2E\	1G	.	1e
2C/	.	1r	.
2D\	2F/	.	2d/
1G	1E	2B\	2.e/
.	.	2B\	.
.	.	.	4f/
=87	=87	=87	=87
2GG/	1D	2B\	2g/
2D\	.	1A	2.f/
2AA/	1r	.	.
.	.	.	4e/
2C/	.	2G/	1e
1D	1A	1F	.
.	.	.	2d/
=88	=88	=88	=88
2r	0.Bl	0.El	0.el
1G	.	.	.
4F\	.	.	.
4E\	.	.	.
1El	.	.	.
==	==	==	==
*-	*-	*-	*-
!!!RDF**kern: l=long note in original notation
!!!RDF**kern: i=editorial accidental
!!!ENC:	Jesse Rodin; Victoria Chang 2012/02/26
!!!END:	2012/02/26/
!!!EED:	Jesse Rodin
!!!EEV:	2012/10/25/
!!attribution-level@Jos: 5 (doubtful)
!!!ONB:	Translated from MusicXML and edited on 2012/06/27/ by Craig Sapp
!!muse2ps: T^@{OPR}^u^@{ONM}{. }@{OTL}^C^Comp&egrave;re/Josquin?\n@{SCT}^i2I150v85,85,85,150Q16
